svg/blobs-icons/no-decorations/music-note.svg

<svg xmlns="http://www.w3.org/2000/svg" xmlns:xlink="http://www.w3.org/1999/xlink" preserveAspectRatio="xMidYMid" width="160" height="216" viewBox="0 0 160 216"><defs><style>.cls-3{fill:#142a3b}.cls-4{fill:#ff3a2f}.cls-6{fill:#000;opacity:.35}</style></defs><g id="group-125svg"><path d="M51.387 172.407c-1.984.0-3.593-1.608-3.593-3.59300000000002V44.964S157.737-.013 157.737-.013s0 140.803.0 140.803C157.737 142.775 156.129 144.383 154.145 144.383 152.161 144.383 150.553 142.775 150.553 140.79V10.691S54.979 49.788 54.979 49.788s0 119.026.0 119.026C54.979 170.799 53.37 172.407 51.387 172.407z" id="path-1" class="cls-3" fill-rule="evenodd"/><path d="M56.057 187.499c0 14.01-12.545 28.023-28.025 28.023-15.473.0-28.025-12.548-28.025-28.023.0-15.478 12.552-28.025 28.025-28.025 5.107.0 23.354.0 28.025.0.0 9.34.0 17.656.0 28.025z" id="path-2" class="cls-4" fill-rule="evenodd"/><path d="M158.816 150.132c0 14.012-12.545 28.025-28.025 28.025-15.473.0-28.025-12.549-28.025-28.025.0-15.477 12.552-28.024 28.025-28.024 5.107.0 23.354.0 28.025.0.0 9.34100000000001.0 18.682.0 28.024z" id="path-3" class="cls-4" fill-rule="evenodd"/><path d="M45.969 159.474c0 6.81200000000001.0 13.47.0 21.299.0 14.011-12.544 28.024-28.025 28.024C14.372 208.797 10.968 208.103 7.825 206.883 12.927 212.199 20.087 215.522 28.032 215.522c15.48.0 28.025-14.013 28.025-28.023.0-10.369.0-18.685.0-28.025-1.823.0-5.718.0-10.088.0z" id="path-4" class="cls-6" fill-rule="evenodd"/><path d="M148.728 122.108c0 7.09999999999999.0 14.198.0 21.299.0 14.013-12.545 28.025-28.025 28.025C117.132 171.432 113.727 170.737 110.584 169.517 115.686 174.832 122.845 178.157 130.791 178.157c15.48.0 28.025-14.013 28.025-28.025.0-9.34200000000001.0-18.683.0-28.024-1.82300000000001.0-5.71799999999999.0-10.088.0z" id="path-5" class="cls-6" fill-rule="evenodd"/><path d="M51.388 83.665C49.973 83.665 48.631 82.823 48.061 81.43 47.31 79.595 48.191 77.497 50.028 76.745L152.786 34.711C154.621 33.969 156.719 34.843 157.471 36.676 158.222 38.511 157.341 40.609 155.504 41.362L52.746 83.396C52.302 83.576 51.841 83.665 51.388 83.665z" id="path-6" class="cls-3" fill-rule="evenodd"/></g></svg>

<svg xmlns="http://www.w3.org/2000/svg" xmlns:xlink="http://www.w3.org/1999/xlink" preserveAspectRatio="xMidYMid" width="160" height="216" viewBox="0 0 160 216">
  <defs>
    <style>

      .cls-3 {
        fill: #142a3b;
      }

      .cls-4 {
        fill: #ff3a2f;
      }

      .cls-6 {
        fill: #000000;
        opacity: 0.35;
      }
    </style>
  </defs>
  <g id="group-125svg">
    <path d="M51.387,172.407 C49.403,172.407 47.794,170.799 47.794,168.814 C47.794,168.814 47.794,44.964 47.794,44.964 C47.794,44.964 157.737,-0.013 157.737,-0.013 C157.737,-0.013 157.737,140.790 157.737,140.790 C157.737,142.775 156.129,144.383 154.145,144.383 C152.161,144.383 150.553,142.775 150.553,140.790 C150.553,140.790 150.553,10.691 150.553,10.691 C150.553,10.691 54.979,49.788 54.979,49.788 C54.979,49.788 54.979,168.814 54.979,168.814 C54.979,170.799 53.370,172.407 51.387,172.407 Z" id="path-1" class="cls-3" fill-rule="evenodd"/>
    <path d="M56.057,187.499 C56.057,201.509 43.512,215.522 28.032,215.522 C12.559,215.522 0.007,202.974 0.007,187.499 C0.007,172.021 12.559,159.474 28.032,159.474 C33.139,159.474 51.386,159.474 56.057,159.474 C56.057,168.814 56.057,177.130 56.057,187.499 Z" id="path-2" class="cls-4" fill-rule="evenodd"/>
    <path d="M158.816,150.132 C158.816,164.144 146.271,178.157 130.791,178.157 C115.318,178.157 102.766,165.608 102.766,150.132 C102.766,134.655 115.318,122.108 130.791,122.108 C135.898,122.108 154.145,122.108 158.816,122.108 C158.816,131.449 158.816,140.790 158.816,150.132 Z" id="path-3" class="cls-4" fill-rule="evenodd"/>
    <path d="M45.969,159.474 C45.969,166.286 45.969,172.944 45.969,180.773 C45.969,194.784 33.425,208.797 17.944,208.797 C14.372,208.797 10.968,208.103 7.825,206.883 C12.927,212.199 20.087,215.522 28.032,215.522 C43.512,215.522 56.057,201.509 56.057,187.499 C56.057,177.130 56.057,168.814 56.057,159.474 C54.234,159.474 50.339,159.474 45.969,159.474 Z" id="path-4" class="cls-6" fill-rule="evenodd"/>
    <path d="M148.728,122.108 C148.728,129.208 148.728,136.306 148.728,143.407 C148.728,157.420 136.183,171.432 120.703,171.432 C117.132,171.432 113.727,170.737 110.584,169.517 C115.686,174.832 122.845,178.157 130.791,178.157 C146.271,178.157 158.816,164.144 158.816,150.132 C158.816,140.790 158.816,131.449 158.816,122.108 C156.993,122.108 153.098,122.108 148.728,122.108 Z" id="path-5" class="cls-6" fill-rule="evenodd"/>
    <path d="M51.388,83.665 C49.973,83.665 48.631,82.823 48.061,81.430 C47.310,79.595 48.191,77.497 50.028,76.745 C50.028,76.745 152.786,34.711 152.786,34.711 C154.621,33.969 156.719,34.843 157.471,36.676 C158.222,38.511 157.341,40.609 155.504,41.362 C155.504,41.362 52.746,83.396 52.746,83.396 C52.302,83.576 51.841,83.665 51.388,83.665 Z" id="path-6" class="cls-3" fill-rule="evenodd"/>
  </g>
</svg>
